build/svg/cmd/lc_config.svg

<?xml version="1.0" encoding="UTF-8" standalone="no"?>
<svg
   xmlns:dc="http://purl.org/dc/elements/1.1/"
   xmlns:cc="http://creativecommons.org/ns#"
   xmlns:rdf="http://www.w3.org/1999/02/22-rdf-syntax-ns#"
   xmlns:svg="http://www.w3.org/2000/svg"
   xmlns="http://www.w3.org/2000/svg"
   xmlns:xlink="http://www.w3.org/1999/xlink"
   xmlns:sodipodi="http://sodipodi.sourceforge.net/DTD/sodipodi-0.dtd"
   xmlns:inkscape="http://www.inkscape.org/namespaces/inkscape"
   viewBox="0 0 24 24"
   version="1.1"
   id="svg6"
   sodipodi:docname="lc_config.svg"
   inkscape:version="0.92.5 (2060ec1f9f, 2020-04-08)"
   inkscape:export-filename="/home/jupiter007/Libreoffice yaru theme fullcolor/build/cmd/lc_config.png"
   inkscape:export-xdpi="95"
   inkscape:export-ydpi="95">
  <metadata
     id="metadata12">
    <rdf:RDF>
      <cc:Work
         rdf:about="">
        <dc:format>image/svg+xml</dc:format>
        <dc:type
           rdf:resource="http://purl.org/dc/dcmitype/StillImage" />
      </cc:Work>
    </rdf:RDF>
  </metadata>
  <defs
     id="defs10">
    <radialGradient
       id="a"
       cx="6.702713"
       cy="73.615715"
       gradientTransform="matrix(1.5790355,0,0,0.48487549,-1.1261938,-12.954011)"
       gradientUnits="userSpaceOnUse"
       r="7.228416">
      <stop
         offset="0"
         id="stop2" />
      <stop
         offset="1"
         stop-opacity="0"
         id="stop4" />
    </radialGradient>
    <linearGradient
       id="b"
       gradientTransform="matrix(0.17214238,0,0,0.17185866,18.982803,-2.3612932)"
       gradientUnits="userSpaceOnUse"
       x1="63.9995"
       x2="63.9995"
       y1="3.1001"
       y2="122.8994">
      <stop
         offset="0"
         stop-color="#f2f2f2"
         id="stop7" />
      <stop
         offset="1"
         stop-color="#d8d8d8"
         id="stop9" />
    </linearGradient>
    <linearGradient
       id="d"
       gradientTransform="matrix(0.15715273,0,0,0.15689376,-0.60014824,4.4982652)"
       gradientUnits="userSpaceOnUse"
       spreadMethod="pad"
       x1="63.9995"
       x2="63.9995"
       xlink:href="#f"
       y1="21.941401"
       y2="104.0591" />
    <linearGradient
       id="f"
       gradientUnits="userSpaceOnUse"
       spreadMethod="pad"
       x1="63.9995"
       x2="63.9995"
       y1="21.941401"
       y2="104.0591">
      <stop
         offset="0"
         stop-color="#dadada"
         id="stop19" />
      <stop
         offset="1"
         stop-color="#ccc"
         id="stop21" />
    </linearGradient>
    <linearGradient
       id="c"
       gradientTransform="matrix(0.15715273,0,0,0.15689376,-0.60014824,4.4982652)"
       gradientUnits="userSpaceOnUse"
       x1="86.132919"
       x2="84.63858"
       y1="105.105"
       y2="20.895">
      <stop
         offset="0"
         stop-color="#fff"
         id="stop12" />
      <stop
         offset="1"
         stop-color="#959595"
         id="stop14" />
    </linearGradient>
    <linearGradient
       id="h"
       gradientTransform="matrix(0.9673189,0,0,0.9657246,2.091602,3.158833)"
       gradientUnits="userSpaceOnUse"
       spreadMethod="pad"
       x1="64"
       x2="64"
       xlink:href="#g"
       y1="21.523018"
       y2="103.06695" />
    <linearGradient
       id="g"
       gradientUnits="userSpaceOnUse"
       spreadMethod="pad"
       x1="64"
       x2="64"
       xlink:href="#f"
       y1="21.523018"
       y2="103.06695">
      <stop
         offset="0"
         stop-color="#d9d9d9"
         id="stop24" />
      <stop
         offset="1"
         stop-color="#ccc"
         id="stop26" />
    </linearGradient>
    <linearGradient
       id="e"
       gradientTransform="matrix(0.9673189,0,0,0.9657246,2.091602,3.158833)"
       gradientUnits="userSpaceOnUse"
       x1="49.273136"
       x2="49.373875"
       xlink:href="#g"
       y1="22.274775"
       y2="102.04791" />
  </defs>
  <sodipodi:namedview
     pagecolor="#ffffff"
     bordercolor="#666666"
     borderopacity="1"
     objecttolerance="10"
     gridtolerance="10"
     guidetolerance="10"
     inkscape:pageopacity="0"
     inkscape:pageshadow="2"
     inkscape:window-width="1920"
     inkscape:window-height="1011"
     id="namedview8"
     showgrid="true"
     inkscape:zoom="19.666667"
     inkscape:cx="-4.7610466"
     inkscape:cy="15.815292"
     inkscape:window-x="0"
     inkscape:window-y="32"
     inkscape:window-maximized="1"
     inkscape:current-layer="svg6">
    <inkscape:grid
       type="xygrid"
       id="grid889" />
  </sodipodi:namedview>
  <path
     id="path34"
     d="m 21.785175,9.6534407 h -0.828521 c -0.223613,0 -0.482172,-0.186122 -0.553265,-0.398024 -0.004,-0.011 -0.51419,-1.245975 -0.51419,-1.245975 C 19.784193,7.7982267 19.834969,7.4844127 19.993,7.326303 l 0.585801,-0.5858663 c 0.134617,-0.1347371 0.208983,-0.3145016 0.208983,-0.5061238 0,-0.1914506 -0.07437,-0.3712149 -0.208983,-0.5059519 L 18.272265,3.4218455 C 18.13765,3.2871084 17.957933,3.2128653 17.766339,3.2128653 c -0.191595,0 -0.371311,0.074243 -0.505927,0.2089802 L 16.674612,4.00754 C 16.516585,4.1654782 16.202597,4.2163483 16.00274,4.1164983 15.99155,4.1113421 14.756429,3.6012661 14.756429,3.6012661 14.533333,3.525992 14.347247,3.2675161 14.347247,3.0439282 V 2.2152256 C 14.346731,1.8204664 14.025685,1.4994344 13.631135,1.4994344 h -3.261753 c -0.3947235,0 -0.7157688,0.321032 -0.7157688,0.7157912 v 0.8287026 c 0,0.2235879 -0.1860857,0.4822357 -0.397993,0.5532133 C 9.2446022,3.6012615 8.0094815,4.1113426 8.0094815,4.1113426 7.7982628,4.2163483 7.4842749,4.1654786 7.3262482,4.00754 l -0.5858,-0.5856945 C 6.6056604,3.2871084 6.4259441,3.2128653 6.2343493,3.2128653 c -0.1915943,0 -0.3713111,0.074415 -0.5059266,0.2089802 L 3.4217148,5.728361 c -0.2790425,0.2790983 -0.2790425,0.733149 0,1.0120757 L 4.0075157,7.326303 c 0.1578545,0.157938 0.2088086,0.4719237 0.1089662,0.6719677 -0.00516,0.01117 -0.5153944,1.246319 -0.5153944,1.246319 -0.075226,0.223072 -0.333612,0.409023 -0.5572249,0.409023 H 2.430003 C 2.0354525,9.6534417 1.4995733,9.9744736 1.4995733,10.369233 v 3.261706 c 0,0.394587 0.3210455,0.715619 0.715768,0.715619 h 0.8286936 c 0.2236127,0 0.4821703,0.185951 0.5530931,0.398025 0.00413,0.011 0.5143615,1.245975 0.5143615,1.245975 0.1050069,0.211215 0.054053,0.525201 -0.1038015,0.683311 l -0.585801,0.585866 c -0.2790426,0.278926 -0.2790426,0.733149 0,1.012076 l 2.3067078,2.306516 c 0.1346157,0.134738 0.3143322,0.20898 0.5059268,0.20898 0.1917666,0 0.3714829,-0.07424 0.5060985,-0.20898 l 0.5858004,-0.585696 c 0.1580269,-0.157938 0.4720144,-0.208982 0.6718718,-0.108958 0.01119,0.005 1.2463106,0.515232 1.2463106,0.515232 0.2229246,0.07528 0.4090103,0.333577 0.4090103,0.55734 v 0.828528 c 0,0.394761 0.3210453,0.715793 0.7157688,0.715793 h 3.26158 c 0.394551,0 0.715596,-0.321032 0.715596,-0.715793 v -0.828528 c 0,-0.223763 0.186086,-0.482239 0.398165,-0.553386 0.01102,-0.004 1.246139,-0.514202 1.246139,-0.514202 0.211219,-0.105008 0.525379,-0.05396 0.683234,0.103804 l 0.5858,0.585695 c 0.134615,0.134738 0.314332,0.20898 0.505926,0.20898 0.191595,0 0.371311,-0.07424 0.505927,-0.20898 l 2.306535,-2.306517 c 0.134618,-0.134566 0.208982,-0.31433 0.208982,-0.505952 0,-0.191623 -0.07436,-0.371387 -0.208982,-0.505952 l -0.585801,-0.585866 c -0.158027,-0.157939 -0.208808,-0.472096 -0.108964,-0.671796 0.0052,-0.01134 0.515393,-1.246319 0.515393,-1.246319 0.07522,-0.223245 0.333614,-0.409196 0.557224,-0.409196 h 0.828522 c 0.394725,0 0.715768,-0.321032 0.715768,-0.715619 V 10.369233 C 22.500988,9.9744736 22.179898,9.6534407 21.785175,9.6534407 Z"
     inkscape:connector-curvature="0"
     style="fill:#b3b3b3;fill-opacity:1;stroke:#6d6d6d;stroke-width:0.99900001;stroke-linecap:round;stroke-linejoin:round;stroke-opacity:1"
     sodipodi:nodetypes="ssccccsccsccccscssssccccsccccccscssssccccccsccccssssssccccsccsccccssscs" />
  <circle
     style="opacity:1;fill:#6d6d6d;fill-opacity:1;fill-rule:evenodd;stroke:none;stroke-width:2;stroke-linecap:butt;stroke-linejoin:round;stroke-miterlimit:4;stroke-dasharray:none;stroke-opacity:1"
     id="path891"
     cx="12"
     cy="12"
     r="3" />
  <circle
     style="opacity:1;fill:#ffffff;fill-opacity:1;fill-rule:evenodd;stroke:none;stroke-width:2;stroke-linecap:butt;stroke-linejoin:round;stroke-miterlimit:4;stroke-dasharray:none;stroke-opacity:1"
     id="path893"
     cx="12"
     cy="12"
     r="2" />
</svg>

<svg xmlns="http://www.w3.org/2000/svg" xmlns:xlink="http://www.w3.org/1999/xlink" viewBox="0 0 24 24"><defs><linearGradient id="a" gradientUnits="userSpaceOnUse" spreadMethod="pad" x1="63.999" x2="63.999" y1="21.941" y2="104.059"><stop offset="0" stop-color="#dadada"/><stop offset="1" stop-color="#ccc"/></linearGradient><linearGradient id="b" gradientUnits="userSpaceOnUse" spreadMethod="pad" x1="64" x2="64" xlink:href="#a" y1="21.523" y2="103.067"><stop offset="0" stop-color="#d9d9d9"/><stop offset="1" stop-color="#ccc"/></linearGradient></defs><path d="M21.785 9.653h-.828a.642.642 0 01-.554-.398L19.89 8.01c-.105-.21-.054-.525.104-.683l.586-.586a.711.711 0 00.209-.506.711.711 0 00-.21-.506l-2.306-2.306a.71.71 0 00-.506-.21.71.71 0 00-.506.21l-.585.586a.64.64 0 01-.672.108l-1.247-.515c-.223-.075-.409-.333-.409-.557v-.829a.717.717 0 00-.716-.716H10.37a.717.717 0 00-.715.716v.829a.642.642 0 01-.398.553l-1.247.514c-.21.105-.525.054-.683-.103l-.586-.586a.71.71 0 00-.506-.21.71.71 0 00-.506.21L3.422 5.728a.716.716 0 000 1.012l.586.586a.64.64 0 01.108.672l-.515 1.247c-.075.223-.334.409-.557.409H2.43c-.395 0-.93.32-.93.715v3.262c0 .395.32.716.715.716h.829c.224 0 .482.186.553.398l.514 1.246c.105.21.055.525-.103.683l-.586.586a.716.716 0 000 1.012l2.307 2.306a.71.71 0 00.506.21.71.71 0 00.506-.21l.585-.585a.64.64 0 01.672-.11c.011.006 1.247.516 1.247.516.223.075.409.333.409.557v.829c0 .395.32.716.715.716h3.262a.716.716 0 00.716-.716v-.829c0-.224.186-.482.398-.553l1.246-.514c.211-.105.525-.054.683.103l.586.586a.71.71 0 00.506.21.71.71 0 00.506-.21l2.306-2.306a.71.71 0 00.21-.506.71.71 0 00-.21-.506l-.586-.586a.64.64 0 01-.108-.672l.515-1.246c.075-.223.334-.41.557-.41h.829a.716.716 0 00.715-.715v-3.262a.716.716 0 00-.715-.716z" fill="#b3b3b3" stroke="#6d6d6d" stroke-width=".999" stroke-linecap="round" stroke-linejoin="round"/><circle cx="12" cy="12" r="3" fill="#6d6d6d" fill-rule="evenodd"/><circle cx="12" cy="12" r="2" fill="#fff" fill-rule="evenodd"/></svg>
